COLOR/action 16/16/distribute-randomize.svg

<svg height="16" viewBox="0 0 16 16" width="16" xmlns="http://www.w3.org/2000/svg"><g stroke-width=".761905"><path d="m9.142857.5238101v3.0476188h4.571429v-3.0476188zm-9.142857 1.5238094v3.0476188h4.5714285v-3.0476188zm11.428572 3.0476188v3.0476184h4.571428v-3.0476184zm-6.0952387 1.5238094v3.0476185h4.5714287v-3.0476185zm2.2857147 5.3333323v3.047619h4.571428v-3.047619zm-7.619048 0v3.047619h4.5714285v-3.047619z" fill="#eab305" fill-rule="evenodd"/><path d="m9.142857.5238102v.3809524h4.571428v-.3809524zm-9.142857 1.5238095v.3809523h4.5714284v-.3809523zm11.428571 3.0476189v.3809523h4.571428v-.3809523zm-6.0952379 1.5238094v.3809524h4.5714279v-.3809524zm-5.3333331 5.333333v.380952h4.5714284v-.380952zm7.6190473 0v.380952h4.5714287v-.380952z" fill="#fff" opacity=".3"/><path d="m9.142857 3.1904768v.3809523h4.571428v-.3809523zm-9.142857 1.5238094v.3809524h4.5714284v-.3809524zm11.428571 3.0476189v.3809524h4.571428v-.3809524zm-6.0952379 1.5238095v.3809523h4.5714279v-.3809523zm-5.3333331 5.3333334v.380952h4.5714284v-.380952zm7.6190473 0v.380952h4.5714287v-.380952z" opacity=".2"/></g></svg>

<?xml version="1.0" encoding="UTF-8" standalone="no"?>
<svg
   xmlns:dc="http://purl.org/dc/elements/1.1/"
   xmlns:cc="http://creativecommons.org/ns#"
   xmlns:rdf="http://www.w3.org/1999/02/22-rdf-syntax-ns#"
   xmlns:svg="http://www.w3.org/2000/svg"
   xmlns="http://www.w3.org/2000/svg"
   xmlns:sodipodi="http://sodipodi.sourceforge.net/DTD/sodipodi-0.dtd"
   xmlns:inkscape="http://www.inkscape.org/namespaces/inkscape"
   height="16"
   viewBox="0 0 16 16"
   width="16"
   version="1.1"
   id="svg4"
   sodipodi:docname="distribute-randomize.svg"
   inkscape:version="0.92.4 (5da689c313, 2019-01-14)">
  <metadata
     id="metadata10">
    <rdf:RDF>
      <cc:Work
         rdf:about="">
        <dc:format>image/svg+xml</dc:format>
        <dc:type
           rdf:resource="http://purl.org/dc/dcmitype/StillImage" />
        <dc:title></dc:title>
      </cc:Work>
    </rdf:RDF>
  </metadata>
  <defs
     id="defs8" />
  <sodipodi:namedview
     pagecolor="#ffffff"
     bordercolor="#666666"
     borderopacity="1"
     objecttolerance="10"
     gridtolerance="10"
     guidetolerance="10"
     inkscape:pageopacity="0"
     inkscape:pageshadow="2"
     inkscape:window-width="1920"
     inkscape:window-height="1016"
     id="namedview6"
     showgrid="false"
     inkscape:zoom="9.8333333"
     inkscape:cx="-7.4745763"
     inkscape:cy="12"
     inkscape:window-x="0"
     inkscape:window-y="27"
     inkscape:window-maximized="1"
     inkscape:current-layer="svg4" />
  <path
     d="m 9.142857,0.5238101 v 3.0476188 h 4.571429 V 0.5238101 Z M 0,2.0476195 V 5.0952383 H 4.5714285 V 2.0476195 Z M 11.428572,5.0952383 V 8.1428567 H 16 V 5.0952383 Z M 5.3333333,6.6190477 V 9.6666662 H 9.904762 V 6.6190477 Z M 7.619048,11.95238 v 3.047619 h 4.571428 V 11.95238 Z M 0,11.95238 v 3.047619 H 4.5714285 V 11.95238 Z"
     id="path2"
     inkscape:connector-curvature="0"
     style="fill:#eab305;fill-rule:evenodd;stroke-width:0.76190472" />
  <path
     d="m 9.142857,0.5238102 v 0.3809524 h 4.571428 V 0.5238102 Z M 0,2.0476197 V 2.428572 H 4.5714284 V 2.0476197 Z m 11.428571,3.0476189 v 0.3809523 h 4.571428 V 5.0952386 Z M 5.3333331,6.619048 V 7.0000004 H 9.904761 V 6.619048 Z M 0,11.952381 v 0.380952 h 4.5714284 v -0.380952 z m 7.6190473,0 v 0.380952 h 4.5714287 v -0.380952 z"
     id="path817"
     style="opacity:0.3;fill:#ffffff;fill-opacity:1;stroke-width:0.76190472"
     inkscape:connector-curvature="0" />
  <path
     d="m 9.142857,3.1904768 v 0.3809523 h 4.571428 V 3.1904768 Z M 0,4.7142862 V 5.0952386 H 4.5714284 V 4.7142862 Z m 11.428571,3.0476189 v 0.3809524 h 4.571428 V 7.7619051 Z M 5.3333331,9.2857146 V 9.6666669 H 9.904761 V 9.2857146 Z M 0,14.619048 V 15 h 4.5714284 v -0.380952 z m 7.6190473,0 V 15 h 4.5714287 v -0.380952 z"
     id="path822"
     style="opacity:0.2;fill:#000000;fill-opacity:1;stroke-width:0.76190472"
     inkscape:connector-curvature="0" />
</svg>
